images/pe-climb.svg

<svg height="64" viewBox="0 0 55 64" width="55" xmlns="http://www.w3.org/2000/svg"><path d="m8.1851213 7.72604131.59155498 1.12562081c.05832232-.00583223 5.43105792-2.45953563 13.48120472-1.21352088 6.9999284 1.08354542 10.6879821 9.35115116 11.4249263 11.20913366-1.5959487 1.7130099-9.8989644 10.3822065-15.8969986 12.2176933-6.652494 2.0325329-14.81386981.7319451-14.90176988.7015342l-2.88403882-.4757435 2.40662896 1.6567705c.30077654.1857983 7.50275013 5.040715 17.54335444 1.7246744l.0974816-.0099981c.5428142-.2828633 1.202273-.2182921 1.6800995.1645523.3920093.4457491.1416399 1.4072343-.6386295 2.5728475-2.709905 3.9804985-6.6175006 13.3074876-5.5272897 21.1422583l.4786596 3.4493488.8077641-3.356033c.9169103-3.9042629 6.200496-16.4748062 12.0377273-24.7907362 1.6513549-.2512025 6.4408673-1.0806293 8.6704463-2.6153395.8952477 5.5097931 1.2505973 13.8573837-1.4293134 20.9981188l.0079151.0774854c-.8552552 3.6263987-2.4649512 7.0307559-4.7249412 9.9926967l-1.2368498 1.7025952 1.985875-.7040337c9.6865045-3.4510152 15.8107649-18.3461196 16.9001426-27.3631672.3682638-2.8053036.4295022-5.642268.1828821-8.4609025-.139557-1.8621484-.591555-3.6872205-1.3359977-5.4002304l3.6447285-5.888055c3.6951357-5.9722058 2.3333095-10.78004807 1.9521314-11.83526551l.9156605-3.91759368-1.1897754.48032598c-.875668.48032598-1.6692682 1.09770941-2.3503896 1.82840479-4.0738142-.45449752-7.3469462 3.07816884-9.3715639 6.12426039-1.1910252-2.19875153-4.3645926-7.11240716-9.662759-8.60254248-.6407124-.17954944-1.3676585-.26120069-2.1583425-.26120069-7.5269122-.00041659-20.87772492 7.3786069-21.500524 7.72604131m40.0470224.93190738c-.0541565-.53698195.3374363-1.01647475.8744182-1.0702146.536982-.05415645 1.0164748.33743629 1.0706312.87441824.0537399.53698195-.3374363 1.01647475-.8748348 1.07063119-.0333271.00333271-.0662375.00499906-.0987314.00499906-.4957397 0-.9206595-.37576239-.9714832-.87983389" fill="#e0be41" fill-rule="evenodd"/></svg>

<?xml version="1.0" encoding="UTF-8"?>
<svg width="55px" height="64px" viewBox="0 0 55 64" version="1.1" xmlns="http://www.w3.org/2000/svg" xmlns:xlink="http://www.w3.org/1999/xlink">
    <!-- Generator: Sketch 50.2 (55047) - http://www.bohemiancoding.com/sketch -->
    <title>Artboard 1</title>
    <desc>Created with Sketch.</desc>
    <defs></defs>
    <g id="Artboard-1" stroke="none" stroke-width="1" fill="none" fill-rule="evenodd">
        <path d="M8.1851213,7.72604131 L8.77667628,8.85166212 C8.8349986,8.84582989 14.2077342,6.39212649 22.257881,7.63814124 C29.2578094,8.72168666 32.9458631,16.9892924 33.6828073,18.8472749 C32.0868586,20.5602848 23.7838429,29.2294814 17.7858087,31.0649682 C11.1333147,33.0975011 2.97193889,31.7969133 2.88403882,31.7665024 L0,31.2907589 L2.40662896,32.9475294 C2.7074055,33.1333277 9.90937909,37.9882444 19.9499834,34.6722038 L20.047465,34.6622057 C20.5902792,34.3793424 21.249738,34.4439136 21.7275645,34.826758 C22.1195738,35.2725071 21.8692044,36.2339923 21.088935,37.3996055 C18.37903,41.380104 14.4714344,50.7070931 15.5616453,58.5418638 L16.0403049,61.9912126 L16.848069,58.6351796 C17.7649793,54.7309167 23.048565,42.1603734 28.8857963,33.8444434 C30.5371512,33.5932409 35.3266636,32.7638141 37.5562426,31.2291039 C38.4514903,36.738897 38.8068399,45.0864876 36.1269292,52.2272227 L36.1348443,52.3047081 C35.2795891,55.9311068 33.6698931,59.335464 31.4099031,62.2974048 L30.1730533,64 L32.1589283,63.2959663 C41.8454328,59.8449511 47.9696932,44.9498467 49.0590709,35.9327991 C49.4273347,33.1274955 49.4885731,30.2905311 49.241953,27.4718966 C49.102396,25.6097482 48.650398,23.7846761 47.9059553,22.0716662 L51.5506838,16.1836112 C55.2458195,10.2114054 53.8839933,5.40356313 53.5028152,4.34834569 L54.4184757,0.430752006 L53.2287003,0.911077987 C52.3530323,1.39140397 51.5594321,2.0087874 50.8783107,2.73948278 C46.8044965,2.28498526 43.5313645,5.81765162 41.5067468,8.86374317 C40.3157216,6.66499164 37.1421542,1.75133601 31.8439878,0.261200685 C31.2032754,0.0816512507 30.4763293,0 29.6856453,0 C22.1587331,-0.000416588014 8.80792038,7.3786069 8.1851213,7.72604131 M48.2321437,8.65794869 C48.1779872,8.12096674 48.56958,7.64147394 49.1065619,7.58773409 C49.6435439,7.53357764 50.1230367,7.92517038 50.1771931,8.46215233 C50.230933,8.99913428 49.8397568,9.47862708 49.3023583,9.53278352 C49.2690312,9.53611623 49.2361208,9.53778258 49.2036269,9.53778258 C48.7078872,9.53778258 48.2829674,9.16202019 48.2321437,8.65794869" id="Fill-1" fill="#E0BE41"></path>
    </g>
</svg>
